src/assets/filled/DirectboxSend.svg

<svg width="24" height="24" viewBox="0 0 24 24"  xmlns="http://www.w3.org/2000/svg">
<path d="M18.6899 11.5298C18.1199 11.3798 17.4499 11.2998 16.6499 11.2998C15.5399 11.2998 15.1299 11.5698 14.5599 11.9998C14.5299 12.0198 14.4999 12.0498 14.4699 12.0798L13.5199 13.0898C12.7199 13.9298 11.2799 13.9398 10.4799 13.0798L9.52993 12.0798C9.49993 12.0498 9.46993 12.0198 9.43993 11.9998C8.86993 11.5698 8.45993 11.2998 7.34993 11.2998C6.54993 11.2998 5.87993 11.3798 5.30993 11.5298C2.92993 12.1698 2.92993 14.0598 2.92993 15.7198V16.6498C2.92993 19.1598 2.92993 21.9998 8.27993 21.9998H15.7199C19.2699 21.9998 21.0699 20.1998 21.0699 16.6498V15.7198C21.0699 14.0598 21.0699 12.1698 18.6899 11.5298ZM14.3299 18.3998H9.66993C9.28993 18.3998 8.97993 18.0898 8.97993 17.6998C8.97993 17.3098 9.28993 16.9998 9.66993 16.9998H14.3299C14.7099 16.9998 15.0199 17.3098 15.0199 17.6998C15.0199 18.0898 14.7099 18.3998 14.3299 18.3998Z" />
<path d="M12.6699 4.3L13.3199 4.95C13.5799 5.21 14.0099 5.21 14.2699 4.95C14.5299 4.69 14.5299 4.26 14.2699 4L12.4699 2.2C12.4099 2.14 12.3299 2.09 12.2499 2.05C12.1699 2.02 12.0899 2 11.9999 2C11.9099 2 11.8299 2.02 11.7399 2.05C11.6599 2.08 11.5999 2.13 11.5399 2.18C11.5299 2.19 11.5299 2.19 11.5199 2.19L9.7199 4C9.4599 4.26 9.4599 4.69 9.7199 4.95C9.9799 5.21 10.4099 5.21 10.6699 4.95L11.3199 4.3V6H12.6699V4.3Z" />
<path d="M19.21 10.12C19.17 10.1 19.12 10.09 19.08 10.08H19.07C18.36 9.89 17.57 9.8 16.65 9.8C15.11 9.8 14.38 10.25 13.72 10.75C13.58 10.85 13.48 10.95 13.38 11.05L12.43 12.06C12.33 12.16 12.17 12.22 12 12.22C11.94 12.22 11.72 12.21 11.57 12.05L10.59 11.02C10.49 10.91 10.37 10.82 10.34 10.8C9.62004 10.25 8.89004 9.8 7.35004 9.8C6.43004 9.8 5.64004 9.89 4.92004 10.08C4.88004 10.09 4.83004 10.1 4.79004 10.12C4.80004 8.13 5.00004 6 9.21004 6H11.33V9.08C11.33 9.45 11.63 9.75 12 9.75C12.37 9.75 12.67 9.45 12.67 9.08V6H14.79C19 6 19.2 8.13 19.21 10.12Z" />
</svg>

<?xml version="1.0" encoding="UTF-8"?>
<svg width="24" height="24" viewBox="0 0 24 24" xmlns="http://www.w3.org/2000/svg">
 <path d="m18.69 11.53c-0.57-0.15-1.24-0.23-2.04-0.23-1.11 0-1.52 0.27-2.09 0.7-0.03 0.02-0.06 0.05-0.09 0.08l-0.95 1.01c-0.8 0.84-2.24 0.85-3.04-0.01l-0.94997-1c-0.03-0.03-0.06-0.06-0.09-0.08-0.57-0.43-0.98-0.7-2.09-0.7-0.8 0-1.47 0.08-2.04 0.23-2.38 0.64-2.38 2.53-2.38 4.19v0.93c0 2.51 0 5.35 5.35 5.35h7.44c3.55 0 5.35-1.8 5.35-5.35v-0.93c0-1.66 0-3.55-2.38-4.19zm-4.36 6.87h-4.66c-0.38 0-0.69-0.31-0.69-0.7s0.31-0.7 0.69-0.7h4.66c0.38 0 0.69 0.31 0.69 0.7s-0.31 0.7-0.69 0.7z"/>
 <path d="m12.67 4.3 0.65 0.65c0.26 0.26 0.69 0.26 0.95 0s0.26-0.69 0-0.95l-1.8-1.8c-0.06-0.06-0.14-0.11-0.22-0.15-0.08-0.03-0.16-0.05-0.25-0.05s-0.17 0.02-0.26 0.05c-0.08 0.03-0.14 0.08-0.2 0.13-0.01 0.01-0.01 0.01-0.02 0.01l-1.8 1.81c-0.26 0.26-0.26 0.69 0 0.95s0.69 0.26 0.95 0l0.65-0.65v1.7h1.35v-1.7z"/>
 <path d="m19.21 10.12c-0.04-0.02-0.09-0.03-0.13-0.04h-0.01c-0.71-0.19-1.5-0.28-2.42-0.28-1.54 0-2.27 0.45-2.93 0.95-0.14 0.1-0.24 0.2-0.34 0.3l-0.95 1.01c-0.1 0.1-0.26 0.16-0.43 0.16-0.06 0-0.28-0.01-0.43-0.17l-0.98-1.03c-0.1-0.11-0.22-0.2-0.25-0.22-0.71996-0.55-1.45-1-2.99-1-0.92 0-1.71 0.09-2.43 0.28-0.04 0.01-0.09 0.02-0.13 0.04 0.01-1.99 0.21-4.12 4.42-4.12h2.12v3.08c0 0.37 0.3 0.67 0.67 0.67s0.67-0.3 0.67-0.67v-3.08h2.12c4.21 0 4.41 2.13 4.42 4.12z"/>
</svg>
